react/assets/forus-webshop/resources/webshop-schouwen_duiveland/assets/img/placeholders/payout.svg

<svg width="76" height="76" viewBox="0 0 200 200" fill="none" xmlns="http://www.w3.org/2000/svg">
    <rect width="200" height="200" fill="#FBFBFB"/>
    <g clip-path="url(#clip0_2012_73041)">
        <path d="M139.102 95.3999H65.5013C63.0053 95.3915 60.5809 94.5625 58.6016 93.0415V136.8C58.6072 141.879 62.7225 145.995 67.8014 146H139.102C140.372 146 141.401 144.971 141.401 143.7V127.6H125.302C124.031 127.6 123.001 126.57 123.001 125.3V111.5C123.001 110.23 124.029 109.201 125.299 109.2H125.302H141.401V97.7001C141.402 96.4303 140.374 95.4006 139.105 95.3999C139.103 95.3999 139.102 95.3999 139.102 95.3999Z" fill="#459AD4"/>
        <path opacity="0.5" d="M139.102 95.3999H65.5013C63.0053 95.3915 60.5809 94.5625 58.6016 93.0415V136.8C58.6072 141.879 62.7225 145.995 67.8014 146H139.102C140.372 146 141.401 144.971 141.401 143.7V127.6H125.302C124.031 127.6 123.001 126.57 123.001 125.3V111.5C123.001 110.23 124.029 109.201 125.299 109.2H125.302H141.401V97.7001C141.402 96.4303 140.374 95.4006 139.105 95.3999C139.103 95.3999 139.102 95.3999 139.102 95.3999Z" fill="url(#paint0_linear_2012_73041)"/>
        <path d="M127.602 113.8H141.402V122.999H127.602V113.8Z" fill="#459AD4"/>
        <path d="M127.602 113.8H141.402V122.999H127.602V113.8Z" fill="black" fill-opacity="0.4"/>
        <path d="M65.5013 90.8002H132.201V79.3001C132.201 78.0297 131.172 77 129.902 77H106.902V79.3001C106.902 83.1108 103.812 86.1999 100.001 86.1999C96.1907 86.1999 93.1016 83.1101 93.1016 79.3001V77H65.5013C61.6907 77 58.6016 80.0891 58.6016 83.8997C58.6016 87.7104 61.6907 90.8002 65.5013 90.8002Z" fill="#459AD4"/>
        <path d="M65.5013 90.8002H132.201V79.3001C132.201 78.0297 131.172 77 129.902 77H106.902V79.3001C106.902 83.1108 103.812 86.1999 100.001 86.1999C96.1907 86.1999 93.1016 83.1101 93.1016 79.3001V77H65.5013C61.6907 77 58.6016 80.0891 58.6016 83.8997C58.6016 87.7104 61.6907 90.8002 65.5013 90.8002Z" fill="black" fill-opacity="0.4"/>
        <path d="M89.9419 67.2967L97.7042 61.0842V79.3C97.7042 80.5705 98.7339 81.6002 100.004 81.6002C101.275 81.6002 102.305 80.5698 102.305 79.3V61.0835L110.067 67.2953C111.059 68.0892 112.507 67.9284 113.301 66.9359C114.095 65.9435 113.934 64.4954 112.942 63.7016L101.442 54.5017C100.6 53.8328 99.4085 53.8328 98.5669 54.5017L87.0668 63.7016C86.0743 64.4954 85.9136 65.9435 86.7075 66.9359C87.5013 67.9284 88.9494 68.0892 89.9419 67.2953V67.2967Z" fill="#459AD4"/>
    </g>
    <defs>
        <linearGradient id="paint0_linear_2012_73041" x1="100.001" y1="93.0415" x2="100.001" y2="146" gradientUnits="userSpaceOnUse">
            <stop stop-color="white" stop-opacity="0.35"/>
            <stop offset="0.611377" stop-color="white" stop-opacity="0"/>
        </linearGradient>
        <clipPath id="clip0_2012_73041">
            <rect width="92" height="92" fill="white" transform="translate(54 54)"/>
        </clipPath>
    </defs>
</svg>

<svg width="76" height="76" viewBox="0 0 200 200" fill="none" xmlns="http://www.w3.org/2000/svg"><path fill="#FBFBFB" d="M0 0h200v200H0z"/><g clip-path="url(#prefix__clip0_2012_73041)"><path d="M139.102 95.4h-73.6a11.387 11.387 0 01-6.9-2.359V136.8a9.21 9.21 0 009.2 9.2h71.3a2.299 2.299 0 002.299-2.3v-16.1h-16.099a2.3 2.3 0 01-2.301-2.3v-13.8a2.3 2.3 0 012.298-2.3h16.102V97.7a2.298 2.298 0 00-2.296-2.3h-.003z" fill="#459AD4"/><path opacity=".5" d="M139.102 95.4h-73.6a11.387 11.387 0 01-6.9-2.359V136.8a9.21 9.21 0 009.2 9.2h71.3a2.299 2.299 0 002.299-2.3v-16.1h-16.099a2.3 2.3 0 01-2.301-2.3v-13.8a2.3 2.3 0 012.298-2.3h16.102V97.7a2.298 2.298 0 00-2.296-2.3h-.003z" fill="url(#prefix__paint0_linear_2012_73041)"/><path d="M127.602 113.8h13.8v9.199h-13.8V113.8z" fill="#459AD4"/><path d="M127.602 113.8h13.8v9.199h-13.8V113.8z" fill="#000" fill-opacity=".4"/><path d="M65.501 90.8h66.7V79.3a2.3 2.3 0 00-2.299-2.3h-23v2.3a6.9 6.9 0 01-13.8 0V77h-27.6a6.9 6.9 0 100 13.8z" fill="#459AD4"/><path d="M65.501 90.8h66.7V79.3a2.3 2.3 0 00-2.299-2.3h-23v2.3a6.9 6.9 0 01-13.8 0V77h-27.6a6.9 6.9 0 100 13.8z" fill="#000" fill-opacity=".4"/><path d="M89.942 67.297l7.762-6.213V79.3a2.3 2.3 0 104.601 0V61.084l7.762 6.211a2.3 2.3 0 102.875-3.593l-11.5-9.2a2.31 2.31 0 00-2.875 0l-11.5 9.2a2.3 2.3 0 102.875 3.593v.002z" fill="#459AD4"/></g><defs><linearGradient id="prefix__paint0_linear_2012_73041" x1="100.001" y1="93.041" x2="100.001" y2="146" gradientUnits="userSpaceOnUse"><stop stop-color="#fff" stop-opacity=".35"/><stop offset=".611" stop-color="#fff" stop-opacity="0"/></linearGradient><clipPath id="prefix__clip0_2012_73041"><path fill="#fff" transform="translate(54 54)" d="M0 0h92v92H0z"/></clipPath></defs></svg>
